icon-themes/sifr_svg/cmd/lc_subtitleparastyle.svg

<svg viewBox="0 0 24 24" xmlns="http://www.w3.org/2000/svg"><path d="m2 2v3h6v17h3v-17h6v-3zm16.5 8c-1.92 0-3.5 1.68-3.5 3.5v.5h2v-.5c0-.83.67-1.5 1.5-1.5s1.5.67 1.5 1.5v.5c0 1.2-3.28 4.23-5 6v2h7v-2h-4.5c2-2 4.5-4.25283 4.5-6v-.5c0-1.92-1.57-3.5-3.5-3.5z" fill="#555753"/></svg>

<svg xmlns="http://www.w3.org/2000/svg" viewBox="0 0 24 24">
  <path
     style="fill:#555753"
     d="m 2,2 v 3 h 6 v 17 h 3 V 5 h 6 V 2 Z m 16.5,8 C 16.58,10 15,11.68 15,13.5 V 14 h 2 v -0.5 c 0,-0.83 0.67,-1.5 1.5,-1.5 0.83,0 1.5,0.67 1.5,1.5 V 14 c 0,1.2 -3.28,4.23 -5,6 v 2 h 7 V 20 H 17.5 C 19.5,18 22,15.74717 22,14 V 13.5 C 22,11.58 20.43,10 18.5,10 Z"
     />
</svg>
